X: 24
T:untitled in MS
T:Sir John Fenwick's The Flower Amang Them All (Northumbrian title)
T:Mary Scott (Scots title)
N:from The Scottish Music List, Vol2 No 92
Z:Jack Campin
S:Cuming MS, 1723
M:3/4
L:1/8
K:Ador
D3EFG|A4F2|A2.B2.d2|"="F3ED2|E2.F2.A2|B4(de)|f2(gf)"="e>d|"="B4A2|
D3EFG|"="A4F2|A2.B2.d2|"="F3ED2|G2(AG)"="F>E|F2(GF)"="E>D|E2.F2.A2|"="B4
A2||
d2D2d2|d3efe|d2A2Bd|"="F3ED2|e2E2de|"="e4de|f2(gf)"="e>d|"="B3ABc|
d2D2d2|d3efe|d2A2Bd|"="F3ED2|f2(gf)"="e>d|B2(dB)"="A>G|E2.F2.A2|"="B4A2|
